X:1
T:I Can See Your Aura and its's Ugly
M:4/4
L:1/4
K:C
 D D| D D D D| A A A A| G F A G| F D d/2 d3/2| d3/2 d/2 d d| d dd/2-c/2 A|\
 c4| z2 A c| d dd/2-c/2 A| c2 A A| G FA/2-G/2 F| D z/2 D/2D/2 D/2 D|\
 F F F/2 D3/2| A AA/2-G/2 F| D4| z2 z D| D D D D| F F G F| A D3-| D2 z d|\
 d/2 d3/2 d d| c c d c| A4| z d d/2 d3/2| d/2 d3/2d/2-c/2 A| c3/2 A/2 A A|\
 G FA/2-G/2 F| D2 z F| F F F/2 D3/2| A AA/2-G/2 F| D4| z2||

